X:76
T:Lord Hoods Fancy. THO5.
M:6/8
L:1/8
B:Thompson's Complete Collection of 200 Favourite Dances Vol.5
F:https://www.libraryofdance.org/manuals/1780c-Thompson-Compleat-5.pdf
Z:vmp. Peter Dunk 2024
Q:3/8=100
K:A
Ace aga|aga ecA|def edc|BcA GFE|
Ace aga|g2b gfe|agf gfe|fe^d e3:|
|:eca f2d|fdb g2e|fga edc|dBA BGE|
eca f2d|geb g2e|afd ecA|dBG A3:|
W:
W:Hey contrary sides ./.
W:then on your own sides ./:
W:cross over one Couple lead through to the top & cast off :/.
W:Right and Left :/:

